X: 1
T:Bourre Valse d'Issoudun
Z:Roger Ngaret (Novembre 2000)
R:
C:Trad.
S:Tablature de Bernard Loffet
A:
M:3/8
L:1/16
K:C
%%rm
"Em"G2 |: c4 B2 | c4 "Am"Bc | d2e2c2 | d4 G2 | d4 e2 |
d4 "Em"cB | "Am"A2B2A2 |1 "Em"G4 G2 :|2 G4 e2 |: e2g2e2 |
"Am"d2f2d2 | "Em"c2 cBcd | e2c2e2 | e2g2e2 | "Am"d2f2d2 |
"Em"cB "Am"A2B2 |1 "Em"c4 e2 :|2 c4 |]
